X:155
T:Steirer
C:traditionell
R:Steirer
A:Bad Ischl, Salzkammergut
B:"Pfeifermusik aus Bad Ischl", Lois Blamberger, 3. Auflage, Bad Ischl 1990
S:im buch mit der Angabe: aus der Sammlung vom Blamberger Lois
N:im buch in D, nr. 4/3
Z:abc transcription Simon Wascher
M:3/4
L:1/8
K:D
V:1
A>B |\
A2 (fA fA) | A2 (gA gA) | c2 (ec AG) | F2 (Ad f2) |\
A2 (fA fA) | A2 (gA gA) | c2 (ec Ac) | d4 :|
V:2
F>E |\
F2 (dF dF) | G2 (eG eG) | A2 (AG FE) | D2 (FAdA) |\
F2 (dF dF) | G2 (eG eG) | A2 (cA GA) | F2 z2 :|
